packages/assets/static/images/icons/presentation-chart.svg

<svg width="24" height="24" viewBox="0 0 24 24" xmlns="http://www.w3.org/2000/svg">
<path d="M20.2498 4.125H12.7498V2.625C12.7498 2.42609 12.6707 2.23532 12.5301 2.09467C12.3894 1.95402 12.1987 1.875 11.9998 1.875C11.8008 1.875 11.6101 1.95402 11.4694 2.09467C11.3288 2.23532 11.2498 2.42609 11.2498 2.625V4.125H3.74976C3.35193 4.125 2.9704 4.28304 2.6891 4.56434C2.40779 4.84564 2.24976 5.22718 2.24976 5.625V16.875C2.24976 17.2728 2.40779 17.6544 2.6891 17.9357C2.9704 18.217 3.35193 18.375 3.74976 18.375H7.43976L5.41382 20.9063C5.2895 21.0617 5.232 21.2601 5.25398 21.4579C5.27596 21.6557 5.37561 21.8366 5.53101 21.9609C5.68641 22.0853 5.88483 22.1428 6.08262 22.1208C6.28041 22.0988 6.46137 21.9992 6.58569 21.8438L9.35976 18.375H14.6398L17.4138 21.8438C17.4754 21.9207 17.5515 21.9848 17.6378 22.0323C17.7241 22.0798 17.819 22.1099 17.9169 22.1208C18.0148 22.1317 18.1139 22.1231 18.2086 22.0957C18.3032 22.0683 18.3916 22.0225 18.4685 21.9609C18.5455 21.8994 18.6095 21.8233 18.6571 21.737C18.7046 21.6506 18.7347 21.5558 18.7455 21.4579C18.7564 21.3599 18.7479 21.2608 18.7205 21.1662C18.6931 21.0715 18.6473 20.9832 18.5857 20.9063L16.5598 18.375H20.2498C20.6476 18.375 21.0291 18.217 21.3104 17.9357C21.5917 17.6544 21.7498 17.2728 21.7498 16.875V5.625C21.7498 5.22718 21.5917 4.84564 21.3104 4.56434C21.0291 4.28304 20.6476 4.125 20.2498 4.125ZM20.2498 16.875H3.74976V5.625H20.2498V16.875ZM9.74976 11.625V13.875C9.74976 14.0739 9.67074 14.2647 9.53009 14.4053C9.38943 14.546 9.19867 14.625 8.99976 14.625C8.80084 14.625 8.61008 14.546 8.46943 14.4053C8.32877 14.2647 8.24976 14.0739 8.24976 13.875V11.625C8.24976 11.4261 8.32877 11.2353 8.46943 11.0947C8.61008 10.954 8.80084 10.875 8.99976 10.875C9.19867 10.875 9.38943 10.954 9.53009 11.0947C9.67074 11.2353 9.74976 11.4261 9.74976 11.625ZM12.7498 10.125V13.875C12.7498 14.0739 12.6707 14.2647 12.5301 14.4053C12.3894 14.546 12.1987 14.625 11.9998 14.625C11.8008 14.625 11.6101 14.546 11.4694 14.4053C11.3288 14.2647 11.2498 14.0739 11.2498 13.875V10.125C11.2498 9.92609 11.3288 9.73532 11.4694 9.59467C11.6101 9.45402 11.8008 9.375 11.9998 9.375C12.1987 9.375 12.3894 9.45402 12.5301 9.59467C12.6707 9.73532 12.7498 9.92609 12.7498 10.125ZM15.7498 8.625V13.875C15.7498 14.0739 15.6707 14.2647 15.5301 14.4053C15.3894 14.546 15.1987 14.625 14.9998 14.625C14.8008 14.625 14.6101 14.546 14.4694 14.4053C14.3288 14.2647 14.2498 14.0739 14.2498 13.875V8.625C14.2498 8.42609 14.3288 8.23532 14.4694 8.09467C14.6101 7.95402 14.8008 7.875 14.9998 7.875C15.1987 7.875 15.3894 7.95402 15.5301 8.09467C15.6707 8.23532 15.7498 8.42609 15.7498 8.625Z"/>
</svg>

<svg viewBox="0 0 24 24" xmlns="http://www.w3.org/2000/svg" aria-hidden="true" fill="currentColor"><path d="M20.25 4.125h-7.5v-1.5a.75.75 0 0 0-1.5 0v1.5h-7.5a1.5 1.5 0 0 0-1.5 1.5v11.25a1.5 1.5 0 0 0 1.5 1.5h3.69l-2.026 2.531a.75.75 0 1 0 1.172.938l2.774-3.469h5.28l2.774 3.469a.751.751 0 0 0 1.172-.938l-2.026-2.531h3.69a1.5 1.5 0 0 0 1.5-1.5V5.625a1.5 1.5 0 0 0-1.5-1.5m0 12.75H3.75V5.625h16.5zm-10.5-5.25v2.25a.75.75 0 1 1-1.5 0v-2.25a.75.75 0 1 1 1.5 0m3-1.5v3.75a.75.75 0 0 1-1.5 0v-3.75a.75.75 0 1 1 1.5 0m3-1.5v5.25a.75.75 0 0 1-1.5 0v-5.25a.75.75 0 1 1 1.5 0"/></svg>
